3/images/common/htmlAcademy.svg

<svg width="280" height="34" viewBox="0 0 280 34" fill="none" xmlns="http://www.w3.org/2000/svg">
<path d="M10.752 11.536V23H9.2V17.784H3.016V23H1.464V11.536H3.016V16.648H9.2V11.536H10.752ZM21.4348 12.84H17.7228V23H16.1788V12.84H12.4588V11.536H21.4348V12.84ZM35.0639 11.536V23H33.7039V14.576C33.7039 14.464 33.7065 14.344 33.7119 14.216C33.7225 14.088 33.7332 13.9573 33.7439 13.824L29.8079 20.992C29.6852 21.232 29.4985 21.352 29.2479 21.352H29.0239C28.7732 21.352 28.5865 21.232 28.4639 20.992L24.4479 13.792C24.4799 14.0747 24.4959 14.336 24.4959 14.576V23H23.1359V11.536H24.2799C24.4185 11.536 24.5252 11.5493 24.5999 11.576C24.6745 11.6027 24.7465 11.6773 24.8159 11.8L28.7759 18.856C28.8399 18.984 28.9012 19.1173 28.9599 19.256C29.0239 19.3947 29.0825 19.536 29.1359 19.68C29.1892 19.536 29.2452 19.3947 29.3039 19.256C29.3625 19.112 29.4265 18.976 29.4959 18.848L33.3839 11.8C33.4479 11.6773 33.5172 11.6027 33.5919 11.576C33.6719 11.5493 33.7812 11.536 33.9199 11.536H35.0639ZM44.4993 21.696V23H37.9953V11.536H39.5393V21.696H44.4993ZM55.3801 18.744L53.5801 14.08C53.5268 13.9413 53.4708 13.7813 53.4121 13.6C53.3535 13.4133 53.2975 13.216 53.2441 13.008C53.1321 13.44 53.0175 13.8 52.9001 14.088L51.1001 18.744H55.3801ZM58.6121 23H57.4121C57.2735 23 57.1615 22.9653 57.0761 22.896C56.9908 22.8267 56.9268 22.7387 56.8841 22.632L55.8121 19.864H50.6681L49.5961 22.632C49.5641 22.728 49.5028 22.8133 49.4121 22.888C49.3215 22.9627 49.2095 23 49.0761 23H47.8761L52.4601 11.536H54.0281L58.6121 23ZM65.2055 16.336C65.1628 16.3947 65.1202 16.44 65.0775 16.472C65.0348 16.504 64.9762 16.52 64.9015 16.52C64.8215 16.52 64.7335 16.488 64.6375 16.424C64.5415 16.3547 64.4215 16.28 64.2775 16.2C64.1388 16.12 63.9655 16.048 63.7575 15.984C63.5548 15.9147 63.3042 15.88 63.0055 15.88C62.6055 15.88 62.2535 15.952 61.9495 16.096C61.6455 16.2347 61.3895 16.4373 61.1815 16.704C60.9788 16.9707 60.8242 17.2933 60.7175 17.672C60.6162 18.0507 60.5655 18.4747 60.5655 18.944C60.5655 19.4347 60.6215 19.872 60.7335 20.256C60.8455 20.6347 61.0028 20.9547 61.2055 21.216C61.4135 21.472 61.6615 21.6693 61.9495 21.808C62.2428 21.9413 62.5708 22.008 62.9335 22.008C63.2802 22.008 63.5655 21.968 63.7895 21.888C64.0135 21.8027 64.1975 21.7093 64.3415 21.608C64.4908 21.5067 64.6135 21.416 64.7095 21.336C64.8108 21.2507 64.9095 21.208 65.0055 21.208C65.1228 21.208 65.2135 21.2533 65.2775 21.344L65.6775 21.864C65.5015 22.0827 65.3015 22.2693 65.0775 22.424C64.8535 22.5787 64.6108 22.7093 64.3495 22.816C64.0935 22.9173 63.8242 22.992 63.5415 23.04C63.2588 23.088 62.9708 23.112 62.6775 23.112C62.1708 23.112 61.6988 23.0187 61.2615 22.832C60.8295 22.6453 60.4535 22.376 60.1335 22.024C59.8135 21.6667 59.5628 21.2293 59.3815 20.712C59.2002 20.1947 59.1095 19.6053 59.1095 18.944C59.1095 18.3413 59.1922 17.784 59.3575 17.272C59.5282 16.76 59.7735 16.32 60.0935 15.952C60.4188 15.5787 60.8162 15.288 61.2855 15.08C61.7602 14.872 62.3042 14.768 62.9175 14.768C63.4882 14.768 63.9895 14.8613 64.4215 15.048C64.8588 15.2293 65.2455 15.488 65.5815 15.824L65.2055 16.336ZM71.5981 19.352C70.9421 19.3733 70.3821 19.4267 69.9181 19.512C69.4595 19.592 69.0835 19.6987 68.7901 19.832C68.5021 19.9653 68.2915 20.1227 68.1581 20.304C68.0301 20.4853 67.9661 20.688 67.9661 20.912C67.9661 21.1253 68.0008 21.3093 68.0701 21.464C68.1395 21.6187 68.2328 21.7467 68.3501 21.848C68.4728 21.944 68.6141 22.016 68.7741 22.064C68.9395 22.1067 69.1155 22.128 69.3021 22.128C69.5528 22.128 69.7821 22.104 69.9901 22.056C70.1981 22.0027 70.3928 21.928 70.5741 21.832C70.7608 21.736 70.9368 21.6213 71.1021 21.488C71.2728 21.3547 71.4381 21.2027 71.5981 21.032V19.352ZM66.9981 16.04C67.4461 15.608 67.9288 15.2853 68.4461 15.072C68.9635 14.8587 69.5368 14.752 70.1661 14.752C70.6195 14.752 71.0221 14.8267 71.3741 14.976C71.7261 15.1253 72.0221 15.3333 72.2621 15.6C72.5021 15.8667 72.6835 16.1893 72.8061 16.568C72.9288 16.9467 72.9901 17.3627 72.9901 17.816V23H72.3581C72.2195 23 72.1128 22.9787 72.0381 22.936C71.9635 22.888 71.9048 22.7973 71.8621 22.664L71.7021 21.896C71.4888 22.0933 71.2808 22.2693 71.0781 22.424C70.8755 22.5733 70.6621 22.7013 70.4381 22.808C70.2141 22.9093 69.9741 22.9867 69.7181 23.04C69.4675 23.0987 69.1875 23.128 68.8781 23.128C68.5635 23.128 68.2675 23.0853 67.9901 23C67.7128 22.9093 67.4701 22.776 67.2621 22.6C67.0595 22.424 66.8968 22.2027 66.7741 21.936C66.6568 21.664 66.5981 21.344 66.5981 20.976C66.5981 20.656 66.6861 20.3493 66.8621 20.056C67.0381 19.7573 67.3235 19.4933 67.7181 19.264C68.1128 19.0347 68.6275 18.848 69.2621 18.704C69.8968 18.5547 70.6755 18.4693 71.5981 18.448V17.816C71.5981 17.1867 71.4621 16.712 71.1901 16.392C70.9181 16.0667 70.5208 15.904 69.9981 15.904C69.6461 15.904 69.3501 15.9493 69.1101 16.04C68.8755 16.1253 68.6701 16.224 68.4941 16.336C68.3235 16.4427 68.1741 16.5413 68.0461 16.632C67.9235 16.7173 67.8008 16.76 67.6781 16.76C67.5821 16.76 67.4995 16.736 67.4301 16.688C67.3608 16.6347 67.3021 16.5707 67.2541 16.496L66.9981 16.04ZM80.4393 16.824C80.1726 16.4667 79.8846 16.2187 79.5753 16.08C79.2659 15.936 78.9193 15.864 78.5353 15.864C77.7833 15.864 77.2046 16.1333 76.7993 16.672C76.3939 17.2107 76.1913 17.9787 76.1913 18.976C76.1913 19.504 76.2366 19.9573 76.3273 20.336C76.4179 20.7093 76.5513 21.0187 76.7273 21.264C76.9033 21.504 77.1193 21.68 77.3753 21.792C77.6313 21.904 77.9219 21.96 78.2473 21.96C78.7166 21.96 79.1246 21.8533 79.4713 21.64C79.8233 21.4267 80.1459 21.1253 80.4393 20.736V16.824ZM81.8633 11.216V23H81.0153C80.8126 23 80.6846 22.9013 80.6313 22.704L80.5033 21.72C80.1566 22.136 79.7619 22.472 79.3193 22.728C78.8766 22.984 78.3646 23.112 77.7833 23.112C77.3193 23.112 76.8979 23.024 76.5193 22.848C76.1406 22.6667 75.8179 22.4027 75.5513 22.056C75.2846 21.7093 75.0793 21.2773 74.9353 20.76C74.7913 20.2427 74.7193 19.648 74.7193 18.976C74.7193 18.3787 74.7993 17.824 74.9593 17.312C75.1193 16.7947 75.3486 16.3467 75.6473 15.968C75.9459 15.5893 76.3113 15.2933 76.7433 15.08C77.1806 14.8613 77.6713 14.752 78.2153 14.752C78.7113 14.752 79.1353 14.8373 79.4873 15.008C79.8446 15.1733 80.1619 15.4053 80.4393 15.704V11.216H81.8633ZM89.5364 18.064C89.5364 17.7333 89.4884 17.432 89.3924 17.16C89.3017 16.8827 89.1657 16.6453 88.9844 16.448C88.8084 16.2453 88.5924 16.0907 88.3364 15.984C88.0804 15.872 87.7897 15.816 87.4644 15.816C86.7817 15.816 86.2404 16.016 85.8404 16.416C85.4457 16.8107 85.2004 17.36 85.1044 18.064H89.5364ZM90.6884 21.864C90.5124 22.0773 90.3017 22.264 90.0564 22.424C89.811 22.5787 89.547 22.7067 89.2644 22.808C88.987 22.9093 88.699 22.984 88.4004 23.032C88.1017 23.0853 87.8057 23.112 87.5124 23.112C86.9524 23.112 86.435 23.0187 85.9604 22.832C85.491 22.64 85.083 22.3627 84.7364 22C84.395 21.632 84.1284 21.1787 83.9364 20.64C83.7444 20.1013 83.6484 19.4827 83.6484 18.784C83.6484 18.2187 83.7337 17.6907 83.9044 17.2C84.0804 16.7093 84.331 16.2853 84.6564 15.928C84.9817 15.5653 85.379 15.2827 85.8484 15.08C86.3177 14.872 86.8457 14.768 87.4324 14.768C87.9177 14.768 88.3657 14.8507 88.7764 15.016C89.1924 15.176 89.5497 15.4107 89.8484 15.72C90.1524 16.024 90.3897 16.4027 90.5604 16.856C90.731 17.304 90.8164 17.816 90.8164 18.392C90.8164 18.616 90.7924 18.7653 90.7444 18.84C90.6964 18.9147 90.6057 18.952 90.4724 18.952H85.0564C85.0724 19.464 85.1417 19.9093 85.2644 20.288C85.3924 20.6667 85.5684 20.984 85.7924 21.24C86.0164 21.4907 86.283 21.68 86.5924 21.808C86.9017 21.9307 87.2484 21.992 87.6324 21.992C87.9897 21.992 88.2964 21.952 88.5524 21.872C88.8137 21.7867 89.0377 21.696 89.2244 21.6C89.411 21.504 89.5657 21.416 89.6884 21.336C89.8164 21.2507 89.9257 21.208 90.0164 21.208C90.1337 21.208 90.2244 21.2533 90.2884 21.344L90.6884 21.864ZM92.5655 23V14.896H93.4215C93.6242 14.896 93.7495 14.9947 93.7975 15.192L93.9015 16.024C94.2002 15.656 94.5362 15.3547 94.9095 15.12C95.2828 14.8853 95.7148 14.768 96.2055 14.768C96.7495 14.768 97.1895 14.92 97.5255 15.224C97.8668 15.528 98.1122 15.9387 98.2615 16.456C98.3788 16.1627 98.5282 15.9093 98.7095 15.696C98.8962 15.4827 99.1042 15.3067 99.3335 15.168C99.5628 15.0293 99.8055 14.928 100.062 14.864C100.323 14.8 100.587 14.768 100.854 14.768C101.28 14.768 101.659 14.8373 101.99 14.976C102.326 15.1093 102.608 15.3067 102.838 15.568C103.072 15.8293 103.251 16.152 103.374 16.536C103.496 16.9147 103.558 17.3493 103.558 17.84V23H102.126V17.84C102.126 17.2053 101.987 16.7253 101.71 16.4C101.432 16.0693 101.032 15.904 100.51 15.904C100.275 15.904 100.051 15.9467 99.8375 16.032C99.6295 16.112 99.4455 16.232 99.2855 16.392C99.1255 16.552 98.9975 16.7547 98.9015 17C98.8108 17.24 98.7655 17.52 98.7655 17.84V23H97.3335V17.84C97.3335 17.1893 97.2028 16.704 96.9415 16.384C96.6802 16.064 96.2988 15.904 95.7975 15.904C95.4455 15.904 95.1202 16 94.8215 16.192C94.5228 16.3787 94.2482 16.6347 93.9975 16.96V23H92.5655ZM112.511 14.896L107.991 25.392C107.943 25.4987 107.881 25.584 107.807 25.648C107.737 25.712 107.628 25.744 107.479 25.744H106.423L107.903 22.528L104.559 14.896H105.791C105.913 14.896 106.009 14.928 106.079 14.992C106.153 15.0507 106.204 15.1173 106.231 15.192L108.399 20.296C108.484 20.52 108.556 20.7547 108.615 21C108.689 20.7493 108.769 20.512 108.855 20.288L110.959 15.192C110.991 15.1067 111.044 15.0373 111.119 14.984C111.199 14.9253 111.287 14.896 111.383 14.896H112.511Z" fill="#444444"/>
<g clip-path="url(#clip0_110933_342)">
<path d="M266.643 0.0157537L266.5 0L253 1.40733V26.0129L266.5 34L280 26.0129V1.40733L266.643 0.0157537ZM278.234 25.0151L266.5 31.9573L254.766 25.0151V14.9293L266.451 21.8451L266.47 23.0984L258.454 18.3548L258.443 19.5801L266.489 24.3885L266.509 25.675L258.464 20.9174L258.454 22.1427L266.5 26.9511L274.624 22.1182V20.8929V16.909L278.243 14.7595L278.234 25.0151ZM278.234 13.4519L275.015 15.3319L273.533 16.2071L266.467 12.0201L266.456 13.2454L272.496 16.818L272.443 16.8495L272.313 16.9247L271.454 17.4166L266.467 14.4689L266.456 15.6942L270.392 18.0222L269.459 18.6314L269.438 18.6436L266.467 16.902L266.456 18.1273L268.403 19.2615L266.416 20.4483L254.797 13.5762L266.435 6.61831L278.234 13.4519ZM278.234 12.2266L266.44 5.31075L254.766 12.2196V2.9897L266.5 1.76442L278.234 2.9897V12.2266Z" fill="#666666"/>
</g>
<defs>
<clipPath id="clip0_110933_342">
<rect width="27" height="34" fill="white" transform="translate(253)"/>
</clipPath>
</defs>
</svg>

<svg width="280" height="34" fill="none" xmlns="http://www.w3.org/2000/svg"><path d="M10.752 11.536V23H9.2v-5.216H3.016V23H1.464V11.536h1.552v5.112H9.2v-5.112h1.552Zm10.683 1.304h-3.712V23h-1.544V12.84h-3.72v-1.304h8.976v1.304Zm13.629-1.304V23h-1.36v-8.424c0-.112.002-.232.008-.36l.032-.392-3.936 7.168c-.123.24-.31.36-.56.36h-.224c-.25 0-.438-.12-.56-.36l-4.016-7.2c.032.283.048.544.048.784V23h-1.36V11.536h1.144c.139 0 .245.013.32.04.074.027.146.101.216.224l3.96 7.056c.064.128.125.261.184.4.064.139.122.28.176.424.053-.144.11-.285.168-.424.059-.144.123-.28.192-.408l3.888-7.048c.064-.123.133-.197.208-.224.08-.027.19-.04.328-.04h1.144Zm9.435 10.16V23h-6.504V11.536h1.544v10.16h4.96Zm10.881-2.952-1.8-4.664a9.569 9.569 0 0 1-.336-1.072 8.706 8.706 0 0 1-.344 1.08l-1.8 4.656h4.28ZM58.612 23h-1.2a.517.517 0 0 1-.336-.104.64.64 0 0 1-.192-.264l-1.072-2.768h-5.144l-1.072 2.768a.562.562 0 0 1-.184.256.51.51 0 0 1-.336.112h-1.2l4.584-11.464h1.568L58.612 23Zm6.593-6.664a.635.635 0 0 1-.127.136.287.287 0 0 1-.177.048.487.487 0 0 1-.263-.096 3.66 3.66 0 0 0-.36-.224 2.548 2.548 0 0 0-.52-.216 2.347 2.347 0 0 0-.753-.104c-.4 0-.752.072-1.056.216a2.03 2.03 0 0 0-.767.608c-.203.267-.358.59-.465.968a4.924 4.924 0 0 0-.151 1.272c0 .49.055.928.167 1.312.113.379.27.699.473.96.207.256.455.453.743.592.294.133.622.2.985.2.346 0 .632-.04.855-.12.224-.085.409-.179.552-.28a4.76 4.76 0 0 0 .369-.272.466.466 0 0 1 .296-.128c.117 0 .207.045.272.136l.4.52a2.838 2.838 0 0 1-.6.56 3.812 3.812 0 0 1-.728.392 4.017 4.017 0 0 1-.808.224c-.283.048-.571.072-.864.072-.507 0-.98-.093-1.416-.28a3.253 3.253 0 0 1-1.129-.808 3.846 3.846 0 0 1-.752-1.312c-.18-.517-.272-1.107-.272-1.768 0-.603.083-1.16.248-1.672.171-.512.416-.952.736-1.32a3.37 3.37 0 0 1 1.192-.872c.475-.208 1.02-.312 1.633-.312.57 0 1.072.093 1.503.28.438.181.825.44 1.16.776l-.376.512Zm6.393 3.016c-.656.021-1.216.075-1.68.16-.459.08-.835.187-1.128.32-.288.133-.499.29-.632.472a1.03 1.03 0 0 0-.192.608c0 .213.035.397.104.552.07.155.163.283.28.384.123.096.264.168.424.216.165.043.341.064.528.064.25 0 .48-.024.688-.072.208-.053.403-.128.584-.224.187-.096.363-.21.528-.344.17-.133.336-.285.496-.456v-1.68Zm-4.6-3.312c.448-.432.93-.755 1.448-.968a4.472 4.472 0 0 1 1.72-.32c.454 0 .856.075 1.208.224.352.15.648.357.888.624s.421.59.544.968c.123.379.184.795.184 1.248V23h-.632a.653.653 0 0 1-.32-.064c-.075-.048-.133-.139-.176-.272l-.16-.768a8.67 8.67 0 0 1-.624.528c-.203.15-.416.277-.64.384a3.446 3.446 0 0 1-.72.232 3.69 3.69 0 0 1-.84.088c-.314 0-.61-.043-.888-.128a2.147 2.147 0 0 1-.728-.4 1.938 1.938 0 0 1-.488-.664 2.41 2.41 0 0 1-.176-.96c0-.32.088-.627.264-.92.176-.299.462-.563.856-.792.395-.23.91-.416 1.544-.56.635-.15 1.413-.235 2.336-.256v-.632c0-.63-.136-1.104-.408-1.424-.272-.325-.67-.488-1.192-.488-.352 0-.648.045-.888.136-.234.085-.44.184-.616.296-.17.107-.32.205-.448.296a.641.641 0 0 1-.368.128.425.425 0 0 1-.248-.072.755.755 0 0 1-.176-.192l-.256-.456Zm13.441.784c-.266-.357-.554-.605-.864-.744a2.435 2.435 0 0 0-1.04-.216c-.752 0-1.33.27-1.736.808-.405.539-.608 1.307-.608 2.304 0 .528.046.981.136 1.36.09.373.224.683.4.928.176.24.392.416.648.528.256.112.547.168.872.168.47 0 .878-.107 1.224-.32.352-.213.675-.515.968-.904v-3.912Zm1.424-5.608V23h-.848c-.202 0-.33-.099-.384-.296l-.128-.984a4.414 4.414 0 0 1-1.184 1.008c-.442.256-.954.384-1.536.384-.464 0-.885-.088-1.264-.264a2.657 2.657 0 0 1-.968-.792c-.266-.347-.472-.779-.616-1.296-.144-.517-.216-1.112-.216-1.784 0-.597.08-1.152.24-1.664.16-.517.39-.965.688-1.344a3.161 3.161 0 0 1 1.096-.888 3.245 3.245 0 0 1 1.472-.328c.496 0 .92.085 1.272.256.358.165.675.397.952.696v-4.488h1.424Zm7.673 6.848c0-.33-.048-.632-.144-.904a1.917 1.917 0 0 0-.408-.712 1.722 1.722 0 0 0-.648-.464 2.155 2.155 0 0 0-.872-.168c-.682 0-1.224.2-1.624.6-.394.395-.64.944-.736 1.648h4.432Zm1.152 3.8c-.176.213-.386.4-.632.56a4.03 4.03 0 0 1-.792.384 4.676 4.676 0 0 1-.864.224c-.298.053-.594.08-.888.08-.56 0-1.077-.093-1.552-.28A3.513 3.513 0 0 1 84.736 22a3.89 3.89 0 0 1-.8-1.36c-.192-.539-.288-1.157-.288-1.856 0-.565.086-1.093.256-1.584a3.74 3.74 0 0 1 .752-1.272 3.374 3.374 0 0 1 1.192-.848 3.87 3.87 0 0 1 1.584-.312c.486 0 .934.083 1.344.248.416.16.774.395 1.072.704.304.304.542.683.712 1.136.171.448.256.96.256 1.536 0 .224-.024.373-.072.448-.048.075-.138.112-.272.112h-5.416c.016.512.086.957.208 1.336.128.379.304.696.528.952.224.25.491.44.8.568a2.8 2.8 0 0 0 1.04.184c.358 0 .664-.04.92-.12a4.608 4.608 0 0 0 1.136-.536c.128-.085.238-.128.328-.128.118 0 .208.045.272.136l.4.52ZM92.565 23v-8.104h.856c.203 0 .328.099.376.296l.105.832c.298-.368.634-.67 1.007-.904a2.383 2.383 0 0 1 1.296-.352c.544 0 .984.152 1.32.456.342.304.587.715.736 1.232.118-.293.267-.547.449-.76a2.652 2.652 0 0 1 1.352-.832c.261-.064.525-.096.792-.096.426 0 .805.07 1.136.208.336.133.618.33.848.592.234.261.413.584.536.968.122.379.184.813.184 1.304V23h-1.432v-5.16c0-.635-.139-1.115-.416-1.44-.278-.33-.678-.496-1.2-.496-.235 0-.459.043-.672.128-.209.08-.392.2-.552.36-.16.16-.288.363-.385.608-.09.24-.135.52-.135.84V23h-1.433v-5.16c0-.65-.13-1.136-.391-1.456-.262-.32-.643-.48-1.144-.48a1.77 1.77 0 0 0-.977.288 3.174 3.174 0 0 0-.823.768V23h-1.433Zm19.946-8.104-4.52 10.496a.727.727 0 0 1-.184.256c-.07.064-.179.096-.328.096h-1.056l1.48-3.216-3.344-7.632h1.232a.41.41 0 0 1 .288.096.454.454 0 0 1 .152.2l2.168 5.104c.085.224.157.459.216.704.074-.25.154-.488.24-.712l2.104-5.096a.438.438 0 0 1 .16-.208.436.436 0 0 1 .264-.088h1.128Z" fill="#444"/><g clip-path="url(#a)"><path d="M266.643.016 266.5 0 253 1.407v24.606L266.5 34l13.5-7.987V1.407L266.643.016Zm11.591 25L266.5 31.956l-11.734-6.942V14.93l11.685 6.916.019 1.253-8.016-4.743-.011 1.225 8.046 4.809.02 1.286-8.045-4.758-.01 1.226 8.046 4.808 8.124-4.833V16.91l3.619-2.15-.009 10.256Zm0-11.564-3.219 1.88-1.482.875-7.066-4.187-.011 1.225 6.04 3.573-.053.031-.13.076-.859.492-4.987-2.948-.011 1.225 3.936 2.328-.933.61-.021.012-2.971-1.742-.011 1.225 1.947 1.135-1.987 1.186-11.619-6.872 11.638-6.958 11.799 6.834Zm0-1.225L266.44 5.31l-11.674 6.909V2.99L266.5 1.764l11.734 1.226v9.237Z" fill="#666"/></g><defs><clipPath id="a"><path fill="#fff" transform="translate(253)" d="M0 0h27v34H0z"/></clipPath></defs></svg>
